X:1
T:TÀ-TÀ FOX-TROT
T:TÀ-TÀ FOX-TROT
T:ALFREDO BARBIROLLI
T:Copyright by HEUGEL 1920
T:Copyright by HEUGEL 1920
T:Copyright by HEUGEL 1920
C:ALFREDO BARBIROLLI
Z:Copyright by HEUGEL 1920
%%score { ( 1 2 4 ) | 3 }
L:1/8
Q:1/4=170
M:2/2
K:C
V:1 treble nm="Piano" snm="Pno."
V:2 treble 
V:4 treble 
V:3 bass 
V:1
S!f!"^Moderato" c'>b c'>b c'>b c'>b | c' z !>![^d^fc']2 !>![dfb]2 !>![dfa]2 | b>^a b>a b>a b>a | %3
 b z !>![^ceb]2 !>![cea]2 !>![ceg]2 |!f! [A=c^f] [Ace]2 [Ac^d]- [Acd]2 [Ac=d]2 | %5
 [GB=f] [GBe]2 [GBd]- [GBd]2 [GBe]2 |!<(! c>B c>B c>B c>B!<)! | c z z2 !>![cegc'] z z2 || %8
!p!!<(! [E,E] z [G,G]4 [A,A]2!<)! |!>(! !tenuto![^A,^A]4 [B,B]4!>)! | %10
!<(! [E,E] z [G,G]4 [A,A]2!<)! | [B,B]8 | z2!mf!!<(! e2 e2 d2 | (d c2 B c4)!<)! | %14
!>(! z2 (d2 d2 c2 | c B2 ^A B4)!>)! |!p!!<(! [E,E] z [G,G]4 [A,A]2!<)! | %17
!>(! !tenuto![^A,^A]4 [B,B]4!>)! |!<(! [E,E] z [G,G]4 [A,A]2!<)! | [B,B]8 |"_cresc." z2 c2 c2 e2 | %21
 d ^c2 d-d z [Ff]2 | [Ee] [^D^d]2 [Ee]-[Ee] z"^stent.   -     -     -     -        a Tempo" [Gg]2 | %23
 [Gg] z [G,B,D]2 [G,B,E]2 [G,B,F]2 |:!p!!<(! [G,G]>[^F,^F] [G,G]>[F,F] [G,G]>[F,F] [G,G]>[F,F] | %25
 [G,G] z"^cantando" ([Cc]2 [B,B]2 [A,A]2!<)! |!>(! !tenuto![A,A]8 | [G,G]8)!>)! | %28
!<(! [G,G]>[^F,^F] [G,G]>[F,F] [G,G]>[F,F] [G,G]>[F,F] | [G,G] z ([Cc]2 [B,B]2 [A,A]2!<)! | %30
!>(! !tenuto![A,A]8 | [G,G]8)!>)! | [A,A]>[^G,^G] [A,A]>[G,G] [A,A]>[G,G] [A,A]>[G,G] | %33
 !>![A,A] z !>![Adf]2 !>![FAe]2 !>![FAd]2 | [G,G]>[^F,^F] [G,G]>[F,F] [G,G]>[F,F] [G,G]>[F,F] | %35
 [G,G] z !>![Gce]2 !>![EGe]2 !>![EGc]2 |!f!!<(! e4- e2 d2 | e4- e2 d2!<)! |!<(! d8-!<)! | %39
!>(! d z"^Poco rit." !>![DFB]2 !>![DFA]2 !>![DF^G]2!>)! | %40
!p!"^a Tempo"!<(! [G,G]>[^F,^F] [G,G]>[F,F] [G,G]>[F,F] [G,G]>[F,F] | %41
 [G,G] z ([Cc]2 [B,B]2 [A,A]2!<)! | !tenuto![A,A]8 | [G,G]8) | %44
 [Ee]>[^D^d] [Ee]>[Dd] [Ee]>[Dd] [Ee]>[Dd] | [Ee] z ([B,B]2 [Cc]2 [Dd]2 | !tenuto![Dd]8 | [Cc]8) | %48
!f! [Cc]>[B,B] [Cc]>[B,B] [Cc]>[B,B] [Cc]>[B,B] | [Cc] z !>![^D^FA]2 !>![DFB]2 !>![DFc]2 | %50
 [Ee]>[^D^d] [Ee]>[Dd] [Ee]>[Dd] [Ee]>[Dd] | [Ee] z !>![A^cg]2 !>![Gcf]2 !>![Gce]2 | %52
!ff! !>![FAe] [FAd]2 !>![FAd]- [FAd]2 !>![FA]2 | !>![FBe] [FBd]2 !>![FBd]- [FBd]2 !>![FG]2 |1 %54
!<(! !>!c>B c>B c>B !>!c>_A!<)! | !>!G z z2 !>![gbf'g'] z z2 :|2!<(! !>!c>B c>B c>B !>!c>B!<)! | %57
S !>!c z z2!8va(! !>![c'e'g'c'']!8va)! z z2 || %58
V:2
 [^d^f]8- | [^d^f] x !>!c2 !>!B2 !>!A2 | [eg]8- | [eg] x !>!B2 !>!A2 !>!G2 | x8 | x8 | %6
 E2- E4 [F_A]2 | [EG] x7 || z2 [CE]4 [CE]2 | z2 [FG][FG] z2 [FG][FG] | z2 [CE]4 [CE]2 | %11
 z2 [FG][FG] [FG]2 [FG][FG] | x2 G2 ^G2 F2 | E4- E4 | x2 c2 A2 ^F2 | G4 =F4 | z2 [CE]4 [CE]2 | %17
 z2 [FG][FG] z2 [FG][FG] | z2 [CE]4 [CE]2 | z2 [FG][FG] [FG]2 [FG][FG] | x2 E2 ^F2 A2 | %21
 B4- B x B2 | c4- c x ^c2 | d x7 |: x8 | x8 | z2 [B,E][B,F]- [B,F][B,E] [B,F]2 | %27
 z2 [B,E][B,F]- [B,F][B,E] [B,F]2 | x8 | x8 | z2 [C^D][CE]- [CE][CD] [CE]2 | %31
 z2 [C^D][CE]- [CE][CD] [CE]2 | x8 | x2 !>!F2 !>!E2 !>!D2 | x8 | x2 !>!E2 !>!D2 !>!C2 | ^F8 | ^F8 | %38
 z [=FG]2 [FG]- [FG]2 [FA]2 | [FB] x7 | x8 | x8 | z2 [B,E][B,F]- [B,F][B,E] [B,F]2 | %43
 z2 [B,E][B,F]- [B,F][B,E] [B,F]2 | x8 | x8 | z2 [^G^A][GB]- [GB][GA] [GB]2 | %47
 z2 [E^G][EA]- [EA][EG] [EA]2 | x8 | x8 | x8 | x2 !>!G2 !>!F2 !>!E2 | x8 | x8 |1 E2- E4 F2- | %55
 F x7 :|2 E2- E4 [F_A]2 | [EG] x3!8va(! x!8va)! x3 || %58
V:3
 [^F,,^F,]2 z2 [A,C^D]2 z2 | [C^D^F] z z2 z4 | [E,,E,]2 z2 [G,B,E]2 z2 | [^CEG] z z2 z4 | %4
 [D,,D,]2"^sempre" z2 [D,^F,=C]2 z2 | [G,,,G,,]2 z2 [=F,G,B,]2 z2 | [C,C]2 [A,,A,]4 [F,,F,]2 | %7
 [C,,C,] z z2 !>![C,,,C,,] z z2 || [C,,C,]2 z2 [G,,,G,,]2 z2 | [D,,D,]2 z2 [G,,,G,,]2 z2 | %10
 [C,,C,]2 z2 [G,,,G,,]2 z2 | [D,,D,]2 z2 [G,,,G,,]2 z2 | z2 [C,,C,]2 [B,,,B,,]2 [E,^G,B,]2 | %13
"_AU MÉNESTREL, 2ᵇᶦˢ rue Vivienne." [A,,,A,,]2 z2 z2 [A,,A,]2 | %14
 [^F,,^F,]2 [E,,E,]2 [D,,D,]2 [D,A,C]2 | [G,,G,]2 [D,G,B,]4- [D,G,B,]2 | %16
 [C,,C,]2 z2 [G,,,G,,]2 z2 | [D,,D,]2 z2 [G,,,G,,]2"_HEUGEL Editeur, Paris." z2 | %18
 [C,,C,]2 z2 [G,,,G,,]2 z2 | [D,,D,]2 z2 [G,,,G,,]2 z2 | z2 [A,,,A,,]2 [D,,D,]2 [D,^F,C]2 | %21
 [G,,G,]2 [D,G,B,]2 [^G,,^G,]2 [G,B,D]2 | %22
"^assai    _            _              _" [A,,A,]2 [E,A,C]2 [^A,,^A,]2 [A,^CE]2 | %23
 [B,DF] z [F,,F,]2 [E,,E,]2 [D,,D,]2 |:"_la 2ạ Volta tutta forte" [C,,C,]2 z2 [G,,,G,,]2 z2 | %25
 [C,,C,] z z2 [G,,,G,,]2 z2 | [D,,D,]2 z2 [G,,,G,,]2 z2 | [D,,D,]2 z2 [G,,,G,,]2 z2 | %28
 [D,,D,]2 z2 [G,,,G,,]2 z2 | [D,,D,] z z2 [G,,,G,,]2 z2 | [C,,C,]2 z2 [G,,,G,,]2 z2 | %31
 [C,,C,]2 z2 [G,,,G,,]2 z2 |"^più sentito" [F,,,F,,]2 z2 !>![D,,D,]2 !>![E,,E,]2 | %33
 !>![F,,F,] z z2 z4 | [E,,E,]2 z2 !>![C,,C,]2 !>![D,,D,]2 | !>![E,,E,] z z2 z4 | %36
 !>![D,D]2 z2 [A,,A,]2 z2 | !>![D,,D,]2 z2 [^F,,^F,]2 z2 | !>![G,,G,] B,2 B,- B,2 C2 | %39
 D z !>![G,,G,]2 !>![A,,A,]2 !>![B,,B,]2 | [C,,C,]2 z2 [G,,,G,,]2 z2 | [C,,C,] z z2 [G,,,G,,]2 z2 | %42
 [D,,D,]2 z2 [G,,,G,,]2 z2 | [D,,D,]2 z2 [G,,,G,,]2 z2 | %44
"^più sentito  e  cresc." [^G,,,^G,,]2 z2 [B,,,B,,]2 z2 | [E,,E,] z z2 [^G,,^G,]2 z2 | %46
 [A,,A,]2 z2 [E,,E,]2 z2 | [A,,,A,,]2 z2 [E,,E,]2 z2 | %48
 [F,,F,]2"^e  cresc.  ancora" z2 [C,F,A,]2 z2 | [^F,,^F,] z !>!A,2 !>!B,2 !>!C2 | %50
 [G,,G,]2 z2 [E,G,C]2 z2 | [A,,,A,,] z z2 z4 | !>![D,,D,]2 z2 !>![F,A,D]2 z2 | %53
 !>![G,,,G,,]2 z2 !>![F,G,B,]2 z2 |1 !>![C,C]2 !>![A,,A,]4 !>![F,,F,]2 | %55
 !>![G,,G,] z z2 !>![G,,,D,,G,,] z z2 :|2 !>![C,C]2 !>![A,,A,]4 !>![F,,F,]2 | %57
 !>![C,,C,] z z2 !>![C,,,C,,] z"_D.C." z2 || %58
V:4
 x8 | x8 | x8 | x8 | x8 | x8 | x8 | x8 || x8 | x8 | x8 | x8 | x8 | x8 | x8 | z4 z2"^m. g." g2 | %16
 x8 | x8 | x8 | x8 | x8 | x8 | x8 | x8 |: x8 | x8 | x8 | x8 | x8 | x8 | x8 | x8 | x8 | x8 | x8 | %35
 x8 | z [Ac]2 [Ac]- [Ac]2 A2 | z [Ac]2 [Ac]- [Ac]2 A2 | x8 | x8 | x8 | x8 | x8 | x8 | x8 | x8 | %46
 x8 | x8 | x8 | x8 | x8 | x8 | x8 | x8 |1 x8 | x8 :|2 x8 | x4!8va(! x!8va)! x3 || %58

